X:1
T:Chorinho para um Rei
T:Chorinho para um Rei Tia Mariinha
L:1/8
M:2/4
K:C
V:1 treble nm="Piano" snm="Pno."
V:1
 z2 z/ e/c/E/ | F/E/^D/E/ A/E/c/A/ | e/d/^c/d/ f/d/B/A/ | A/^G/A/B/ d/c/B/A/ | e4 || %5
 z2 z/ e/c/E/ |:S"Am" F/E/^D/E/ A/E/c/A/ |"Dm" e/d/^c/d/ f/d/B/A/ |"E7" A/^G/A/B/ d/c/B/A/ | %9
"Am" E2-"A7" E/e/d/^c/ |"Dm" d/F/A/d/ d/F/A/d/ |"Am" c/E/A/c/ c/E/A/c/ |"E7" B/E/^G/B/ B/E/G/B/ | %13
"Am" A2- A/e/c/E/ |"Am" F/E/_E/=E/ A/E/c/A/ |"Dm" e/d/^c/d/ f/d/B/A/ |"E7" A/_A/G/A/ c/B/^A/B/ | %17
"Am" e2-"A7" e/e/d/^c/ |"Dm" d/F/A/d/ d/F/A/d/ |"Am" c/E/A/c/ c/E/A/c/ |"E7" B/E/^G/B/ B/E/G/B/ |1 %21
"Am" A2- A/e/c/E/ :|2"A" A2- A/E/A/B/ ||[K:A]"A" c/=c/^c/e/"F#7" d/c/B/^A/ | %24
"Bm" c/B/^A/B/ f/d/B/=A/ |"E7" A/G/=G/^G/ c/B/G/F/ |"A" E2- E/E/^D/E/ | %27
"Bbother" =G/F/^E/F/"Dbother" B/^A/=A/^A/ |"Bm" c/B/A/F/ ^D/F/A/B/ |"B" c/B/A/F/ ^D/F/A/G/ | %30
"E7" B2- B/E/A/B/ |"A" c/=c/^c/e/"Bbother" d/c/B/^A/ |"Bm" c/B/^A/B/ f/d/B/=A/ | %33
"E7" A/G/=G/^G/ c/B/c/d/ |"A7" e2- e/e/d/c/ |"Dm" d/^E/A/d/ d/E/A/d/ |"Am" =c/E/A/^B/ B/E/A/c/ | %37
"E7" B/E/G/B/ B/E/G/B/ |"Am" e2-"A7" e/e/d/c/ |"Dm" d/^E/A/d/ d/E/A/d/ |"Am" =c/E/A/c/ c/E/A/c/ | %41
"E7" B/E/G/B/ B/E/G/B/ |"Am" A2-"Bbother" A/e/f/e/ |:"Bm" e/d/B/G/"Bother" ^E/G/B/d/ | %44
"A" d/c/A/E/"F#7" C/E/A/c/ |"B7" c/B/^A/B/"E7" c/B/G/E/ |"A" e2-"A7" e/A/G/=G/ | %47
"D" F/=F/^F/G/"Dm" B/A/G/A/ |"A" f/e/^d/e/"Bbother" f/e/c/A/ |O"Bm" F/^E/F/=G/"E7" ^G/B/f/e/ |1 %50
"A" A2- A/e/f/e/ :|2"Am" A2- A/e/=c/E/ ||[K:C] z4!D.S.! |] %53

